icons/circle/48/accessories-image-viewer.svg

<svg xmlns="http://www.w3.org/2000/svg" viewBox="0 0 48 48">
 <defs>
  <linearGradient id="linearGradient3764" x1="1" x2="47" gradientUnits="userSpaceOnUse" gradientTransform="matrix(0,-1,1,0,-1.5e-6,47.999998)">
   <stop style="stop-color:#93c848;stop-opacity:1"/>
   <stop offset="1" style="stop-color:#9ccd57;stop-opacity:1"/>
  </linearGradient>
 </defs>
 <g>
  <path d="m 36.31 5 c 5.859 4.062 9.688 10.831 9.688 18.5 c 0 12.426 -10.07 22.5 -22.5 22.5 c -7.669 0 -14.438 -3.828 -18.5 -9.688 c 1.037 1.822 2.306 3.499 3.781 4.969 c 4.085 3.712 9.514 5.969 15.469 5.969 c 12.703 0 23 -10.298 23 -23 c 0 -5.954 -2.256 -11.384 -5.969 -15.469 c -1.469 -1.475 -3.147 -2.744 -4.969 -3.781 z m 4.969 3.781 c 3.854 4.113 6.219 9.637 6.219 15.719 c 0 12.703 -10.297 23 -23 23 c -6.081 0 -11.606 -2.364 -15.719 -6.219 c 4.16 4.144 9.883 6.719 16.219 6.719 c 12.703 0 23 -10.298 23 -23 c 0 -6.335 -2.575 -12.06 -6.719 -16.219 z" style="opacity:0.05"/>
  <path d="m 41.28 8.781 c 3.712 4.085 5.969 9.514 5.969 15.469 c 0 12.703 -10.297 23 -23 23 c -5.954 0 -11.384 -2.256 -15.469 -5.969 c 4.113 3.854 9.637 6.219 15.719 6.219 c 12.703 0 23 -10.298 23 -23 c 0 -6.081 -2.364 -11.606 -6.219 -15.719 z" style="opacity:0.1"/>
  <path d="m 31.25 2.375 c 8.615 3.154 14.75 11.417 14.75 21.13 c 0 12.426 -10.07 22.5 -22.5 22.5 c -9.708 0 -17.971 -6.135 -21.12 -14.75 a 23 23 0 0 0 44.875 -7 a 23 23 0 0 0 -16 -21.875 z" style="opacity:0.2"/>
 </g>
 <g>
  <path d="m 24 1 c 12.703 0 23 10.297 23 23 c 0 12.703 -10.297 23 -23 23 -12.703 0 -23 -10.297 -23 -23 0 -12.703 10.297 -23 23 -23 z" style="fill:url(#linearGradient3764);fill-opacity:1"/>
 </g>
 <rect y="14" x="12" height="22" width="26" rx="2" style="fill:#000;opacity:0.1;fill-opacity:1;stroke:none"/>
 <g>
  <g>
   <g transform="translate(1,1)">
    <g style="opacity:0.1">
     <!-- color: #9ccd57 -->
    </g>
   </g>
  </g>
 </g>
 <g>
  <path d="m 40.03 7.531 c 3.712 4.084 5.969 9.514 5.969 15.469 0 12.703 -10.297 23 -23 23 c -5.954 0 -11.384 -2.256 -15.469 -5.969 4.178 4.291 10.01 6.969 16.469 6.969 c 12.703 0 23 -10.298 23 -23 0 -6.462 -2.677 -12.291 -6.969 -16.469 z" style="opacity:0.1"/>
 </g>
 <g>
  <g>
   <g>
    <!-- color: #9ccd57 -->
    <g>
     <path d="m 11.801 13.801 l 0 20.398 l 24.398 0 l 0 -20.398 l -24.398 0 z" style="fill:#2c86d5;fill-opacity:1;stroke:none;fill-rule:nonzero"/>
     <path d="m 17 26 -5.2 5 0.001 3.199 l 11.217 0.001 l 0 -2.223" style="fill:#f4f4f4;fill-opacity:1;stroke:none;fill-rule:nonzero"/>
     <path d="M 17.02,25.977 18,30 l -2,2.5 1.02,1.7 5.98,0 0,-2.2" style="fill:#dedede;fill-opacity:1;stroke:none;fill-rule:nonzero"/>
     <path d="m 30 22 -9 12.2 15.2 0 -0.08 -5.7" style="fill:#f4f4f4;fill-opacity:1;stroke:none;fill-rule:nonzero"/>
     <path d="M 30.02,21.977 31.5,27 30,31.5 l 2,2.7 4.2,0 0,-5.7" style="fill:#dedede;fill-opacity:1;stroke:none;fill-rule:nonzero"/>
     <path d="m 11.801 13.801 0 10.1 c 0.397 0.063 0.798 0.099 1.199 0.1 c 4.418 0.003 8 -3.582 8 -8 0 -0.744 -0.105 -1.484 -0.311 -2.199 z" style="fill:#fff;fill-opacity:0.2;stroke:none;fill-rule:nonzero"/>
     <path d="m 11.801 13.801 0 5.758 c 0.52 0.289 1.105 0.441 1.699 0.441 1.933 0 3.5 -1.567 3.5 -3.5 0 -1.045 -0.467 -2.035 -1.273 -2.699 z" style="fill:#fbc06e;fill-opacity:1;stroke:none;fill-rule:nonzero"/>
    </g>
   </g>
  </g>
  <path d="m 13 13 c -1.108 0 -2 0.892 -2 2 l 0 18 c 0 1.108 0.892 2 2 2 l 22 0 c 1.108 0 2 -0.892 2 -2 l 0 -18 c 0 -1.108 -0.892 -2 -2 -2 l -22 0 z m 0 1 22 0 c 0.554 0 1 0.446 1 1 l 0 18 c 0 0.554 -0.446 1 -1 1 l -22 0 c -0.554 0 -1 -0.446 -1 -1 l 0 -18 c 0 -0.554 0.446 -1 1 -1 z" style="fill:#f9f9f9;opacity:1;fill-opacity:1;stroke:none"/>
 </g>
</svg>

<svg xmlns="http://www.w3.org/2000/svg" viewBox="0 0 48 48">
  <defs>
    <linearGradient id="a" x1="1" x2="47" gradientUnits="userSpaceOnUse" gradientTransform="rotate(-90 24 24)">
      <stop stop-color="#93c848"/>
      <stop offset="1" stop-color="#9ccd57"/>
    </linearGradient>
  </defs>
  <path d="M36.31 5c5.859 4.062 9.688 10.831 9.688 18.5 0 12.426-10.07 22.5-22.5 22.5-7.669 0-14.438-3.828-18.5-9.688a23.24 23.24 0 0 0 3.781 4.969 22.923 22.923 0 0 0 15.469 5.969c12.703 0 23-10.298 23-23a22.92 22.92 0 0 0-5.969-15.469A23.216 23.216 0 0 0 36.31 5zm4.969 3.781A22.911 22.911 0 0 1 47.498 24.5c0 12.703-10.297 23-23 23a22.909 22.909 0 0 1-15.719-6.219C12.939 45.425 18.662 48 24.998 48c12.703 0 23-10.298 23-23 0-6.335-2.575-12.06-6.719-16.219z" opacity=".05"/>
  <path d="M41.28 8.781a22.923 22.923 0 0 1 5.969 15.469c0 12.703-10.297 23-23 23A22.92 22.92 0 0 1 8.78 41.281 22.911 22.911 0 0 0 24.499 47.5c12.703 0 23-10.298 23-23A22.909 22.909 0 0 0 41.28 8.781z" opacity=".1"/>
  <path d="M31.25 2.375C39.865 5.529 46 13.792 46 23.505c0 12.426-10.07 22.5-22.5 22.5-9.708 0-17.971-6.135-21.12-14.75a23 23 0 0 0 44.875-7 23 23 0 0 0-16-21.875z" opacity=".2"/>
  <path d="M24 1c12.703 0 23 10.297 23 23S36.703 47 24 47 1 36.703 1 24 11.297 1 24 1z" fill="url(#a)"/>
  <rect y="14" x="12" height="22" width="26" rx="2" opacity=".1"/>
  <g>
    <path d="M40.03 7.531A22.922 22.922 0 0 1 45.999 23c0 12.703-10.297 23-23 23A22.92 22.92 0 0 1 7.53 40.031C11.708 44.322 17.54 47 23.999 47c12.703 0 23-10.298 23-23 0-6.462-2.677-12.291-6.969-16.469z" opacity=".1"/>
  </g>
  <g>
    <path d="M11.801 13.801v20.398h24.398V13.801H11.801z" fill="#2c86d5"/>
    <path d="M17 26l-5.2 5 .001 3.199 11.217.001v-2.223" fill="#f4f4f4"/>
    <path d="M17.02 25.977L18 30l-2 2.5 1.02 1.7H23V32" fill="#dedede"/>
    <path d="M30 22l-9 12.2h15.2l-.08-5.7" fill="#f4f4f4"/>
    <path d="M30.02 21.977L31.5 27 30 31.5l2 2.7h4.2v-5.7" fill="#dedede"/>
    <path d="M11.801 13.801v10.1a7.78 7.78 0 0 0 1.199.1c4.418.003 8-3.582 8-8 0-.744-.105-1.484-.311-2.199z" fill="#fff" fill-opacity=".2"/>
    <path d="M11.801 13.801v5.758a3.499 3.499 0 0 0 3.926-5.758z" fill="#fbc06e"/>
    <path d="M13 13c-1.108 0-2 .892-2 2v18c0 1.108.892 2 2 2h22c1.108 0 2-.892 2-2V15c0-1.108-.892-2-2-2H13zm0 1h22c.554 0 1 .446 1 1v18c0 .554-.446 1-1 1H13c-.554 0-1-.446-1-1V15c0-.554.446-1 1-1z" fill="#f9f9f9"/>
  </g>
</svg>
